packages/calcite-ui-icons/icons/mosaic-method-closest-to-center-16.svg

<?xml version="1.0" encoding="UTF-8"?><svg id="icons" xmlns="http://www.w3.org/2000/svg" viewBox="0 0 16 16"><defs><style>.cls-1{fill:none;}.cls-2{fill:#6f6f6f;opacity:.25;}.cls-3{opacity:.5;}</style></defs><path d="M4,6v-2h2v1.75214c.30688-.2912.64142-.55219,1-.78003v-.97211h2v.12939c.32495-.07642.65851-.12836,1-.15411V0H0v7h4.97272c.22778-.35858.48859-.69305.77948-1h-1.7522ZM7,1h2v2h-2V1ZM4,1h2v2h-2V1ZM3,6H1v-2h2v2ZM3,3H1V1h2v2ZM10.49469,5.20001c-2.92999,0-5.29468,2.3728-5.29468,5.29999s2.36469,5.29999,5.29468,5.29999,5.3053-2.37292,5.3053-5.29999-2.37524-5.29999-5.3053-5.29999ZM10,14.74969c-1.96692-.22992-3.5177-1.78082-3.74933-3.74969h3.74933v3.74969ZM10,10h-3.74933c.23163-1.96887,1.78241-3.51978,3.74933-3.74969v3.74969ZM11,6.25116c1.96777.2334,3.51746,1.78284,3.74921,3.74884h-3.74921v-3.74884ZM11,14.74884v-3.75784h3.74921c-.23175,1.966-1.78143,3.52444-3.74921,3.75784Z"/><path class="cls-3" d="M9,4v.12939c-.71979.16931-1.39307.45691-2,.84271v-.97211h2ZM4,3h2V1h-2v2ZM1,6h2v-2H1v2Z"/><path class="cls-2" d="M6,4v1.75214c-.0849.08051-.1673.16296-.2478.24786h-1.75171c-.00018-.00031-.00031-.00049-.00049-.00079v-1.99841c.00018-.00031.00031-.00049.00049-.00079h1.99951ZM1,1.00079v1.99841c.00018.00031.00031.00049.00049.00079h1.99951V1h-1.99951c-.00018.00031-.00031.00049-.00049.00079Z"/><rect class="cls-1" width="16" height="16"/></svg>

<svg xmlns="http://www.w3.org/2000/svg" viewBox="0 0 16 16"><path d="M4 6V4h2v1.752a6.573 6.573 0 0 1 1-.78V4h2v.13a6.497 6.497 0 0 1 1-.155V0H0v7h4.973c.227-.359.488-.693.78-1H4zm3-5h2v2H7V1zM4 1h2v2H4V1zM3 6H1V4h2v2zm0-3H1V1h2v2zm7.495 2.2C7.565 5.2 5.2 7.573 5.2 10.5s2.365 5.3 5.295 5.3 5.305-2.373 5.305-5.3-2.375-5.3-5.305-5.3zM10 14.75A4.276 4.276 0 0 1 6.25 11H10v3.75zM10 10H6.25A4.276 4.276 0 0 1 10 6.25V10zm1-3.749A4.28 4.28 0 0 1 14.75 10H11V6.251zm0 8.498V10.99h3.75A4.29 4.29 0 0 1 11 14.749z"/><path d="M9 4v.13a6.483 6.483 0 0 0-2 .842V4h2zM4 3h2V1H4v2zM1 6h2V4H1v2z" opacity=".5"/><path d="M6 4v1.752c-.085.08-.167.163-.248.248H4V4h2zM1 1v2h2V1H1z" fill="#6f6f6f" opacity=".25"/><path fill="none" d="M0 0h16v16H0z"/></svg>
